src/images/megNavLogGrey.svg

<svg xmlns="http://www.w3.org/2000/svg" viewBox="0 0 38 42">
    <path d="M38 15.11a.13.13 0 010-.06.59.59 0 00-.12-.22L23.37.14a.46.46 0 00-.22-.14H.49A.49.49 0 000 .49v41a.49.49 0 00.49.51h37a.49.49 0 00.49-.49V15.17s.02-.04.02-.06zM23.51 1.68L26.79 5l9.55 9.67H23.51zM37 41H1V1h21.54v14.17a.48.48 0 00.48.49H37zM9.64 23.27H6.5v13.15h6.9v-2.68H9.64zm17.93 13.35c2.36 0 3.93-1.2 3.93-3.45v-3.74h-4.22v2.34h1.16V33c0 .59-.28.91-.87.91s-.92-.43-.92-1V26.7a.87.87 0 01.94-1 .93.93 0 011 .88v1.15h2.91v-1.31c0-2.29-1.94-3.36-4-3.36-2.21 0-4.07 1.24-4.07 3.58v6.27c.03 2.49 1.84 3.71 4.14 3.71zm-9.33-13.56c-2.33 0-4.1 1.31-4.1 3.82v5.92c0 2.64 1.68 3.82 4.12 3.82 2.25 0 4.09-1.24 4.09-3.84v-5.9c0-2.64-1.82-3.82-4.11-3.82zm.94 9.82a.92.92 0 11-1.84 0v-6.11c0-.63.31-1 .9-1a.89.89 0 01.94 1z" />
</svg>

<svg id="Layer_1" data-name="Layer 1" xmlns="http://www.w3.org/2000/svg" viewBox="0 0 38 42"><defs><style>.cls-1{fill:#c8c8d4;}</style></defs><path class="cls-1" d="M38,15.11a.13.13,0,0,1,0-.06.59.59,0,0,0-.12-.22L23.37.14A.46.46,0,0,0,23.15,0l-.06,0H.49A.49.49,0,0,0,0,.49v41A.49.49,0,0,0,.49,42h37a.49.49,0,0,0,.49-.49V15.17S38,15.13,38,15.11ZM23.51,1.68,26.79,5l9.55,9.67H23.51ZM37,41H1V1H22.54V15.17a.48.48,0,0,0,.48.49H37ZM9.64,23.27H6.5V36.42h6.9V33.74H9.64ZM27.57,36.62c2.36,0,3.93-1.2,3.93-3.45V29.43H27.28v2.34h1.16V33c0,.59-.28.91-.87.91s-.92-.43-.92-1V26.7a.87.87,0,0,1,.94-1,.93.93,0,0,1,1,.88v1.15H31.5V26.42c0-2.29-1.94-3.36-4-3.36-2.21,0-4.07,1.24-4.07,3.58v6.27C23.46,35.4,25.27,36.62,27.57,36.62ZM18.24,23.06c-2.33,0-4.1,1.31-4.1,3.82V32.8c0,2.64,1.68,3.82,4.12,3.82,2.25,0,4.09-1.24,4.09-3.84v-5.9C22.35,24.24,20.53,23.06,18.24,23.06Zm.94,9.82a.92.92,0,1,1-1.84,0V26.77c0-.63.31-1,.9-1a.89.89,0,0,1,.94,1Z"/></svg>
